X:176
T:score255
L:1/8
Q:1/4=96
M:3/4
I:linebreak $
K:Bb
!p! (d2"_dolce ma intenso" c>B A>G) | (G4 ^F2) | (e2 d>c B>A) | (A4!<(! G2) |$ %4
!mf!!<)! (g2 fg (3efd) | e6 | (f2 ef (3dec) |"_dim." d6 | (e2 de (3cdB) |$ c4 c2 | %10
!<(! (d4"^rall. ." e2) | !fermata!d4!<)! z2 |] %12
